Numix-GalliumOS/22/status/yd-busy5.svg

<?xml version="1.0" encoding="UTF-8" standalone="no"?>
<!-- Created with Inkscape (http://www.inkscape.org/) -->

<svg
   xmlns:dc="http://purl.org/dc/elements/1.1/"
   xmlns:cc="http://creativecommons.org/ns#"
   xmlns:rdf="http://www.w3.org/1999/02/22-rdf-syntax-ns#"
   xmlns:svg="http://www.w3.org/2000/svg"
   xmlns="http://www.w3.org/2000/svg"
   xmlns:sodipodi="http://sodipodi.sourceforge.net/DTD/sodipodi-0.dtd"
   xmlns:inkscape="http://www.inkscape.org/namespaces/inkscape"
   id="svg2"
   version="1.1"
   inkscape:version="0.91 r"
   width="22"
   height="22"
   viewBox="0 0 22 22"
   sodipodi:docname="yd-busy5.svg">
  <metadata
     id="metadata8">
    <rdf:RDF>
      <cc:Work
         rdf:about="">
        <dc:format>image/svg+xml</dc:format>
        <dc:type
           rdf:resource="http://purl.org/dc/dcmitype/StillImage" />
        <dc:title />
      </cc:Work>
    </rdf:RDF>
  </metadata>
  <defs
     id="defs6">
    <clipPath
       id="clipPath-408241621">
      <g
         id="g3616"
         transform="translate(0,-1004.3622)">
        <path
           id="path3618"
           transform="matrix(15.333333,0,0,11.5,414.99999,878.8622)"
           d="m -24,13 c 0,1.105 -0.672,2 -1.5,2 -0.828,0 -1.5,-0.895 -1.5,-2 0,-1.105 0.672,-2 1.5,-2 0.828,0 1.5,0.895 1.5,2 z"
           inkscape:connector-curvature="0"
           style="fill:#1890d0" />
      </g>
    </clipPath>
    <clipPath
       id="clipPath-408241621-2">
      <g
         id="g3616-2"
         transform="translate(0,-1004.3622)">
        <path
           id="path3618-9"
           transform="matrix(15.333333,0,0,11.5,414.99999,878.8622)"
           d="m -24,13 c 0,1.105 -0.672,2 -1.5,2 -0.828,0 -1.5,-0.895 -1.5,-2 0,-1.105 0.672,-2 1.5,-2 0.828,0 1.5,0.895 1.5,2 z"
           inkscape:connector-curvature="0"
           style="fill:#1890d0" />
      </g>
    </clipPath>
    <clipPath
       id="clipPath-408241621-2-6">
      <g
         id="g3616-2-4"
         transform="translate(0,-1004.3622)">
        <path
           id="path3618-9-4"
           transform="matrix(15.333333,0,0,11.5,414.99999,878.8622)"
           d="m -24,13 c 0,1.105 -0.672,2 -1.5,2 -0.828,0 -1.5,-0.895 -1.5,-2 0,-1.105 0.672,-2 1.5,-2 0.828,0 1.5,0.895 1.5,2 z"
           inkscape:connector-curvature="0"
           style="fill:#1890d0" />
      </g>
    </clipPath>
  </defs>
  <sodipodi:namedview
     pagecolor="#ffffff"
     bordercolor="#666666"
     borderopacity="1"
     objecttolerance="10"
     gridtolerance="10"
     guidetolerance="10"
     inkscape:pageopacity="0"
     inkscape:pageshadow="2"
     inkscape:window-width="1366"
     inkscape:window-height="747"
     id="namedview4"
     showgrid="true"
     showguides="false"
     inkscape:zoom="22.627416"
     inkscape:cx="11.990585"
     inkscape:cy="12.354745"
     inkscape:window-x="0"
     inkscape:window-y="21"
     inkscape:window-maximized="1"
     inkscape:current-layer="svg2">
    <inkscape:grid
       type="xygrid"
       id="grid4142" />
  </sodipodi:namedview>
  <path
     style="opacity:1;fill:#ececec;fill-opacity:0.94117647;fill-rule:nonzero;stroke:none;stroke-width:1;stroke-linecap:square;stroke-linejoin:round;stroke-miterlimit:4;stroke-dasharray:none;stroke-dashoffset:0;stroke-opacity:1"
     d="M 11.355469 5.8964844 L 11.363281 6.0273438 L 10.660156 6.1074219 C 8.7679679 6.321422 7.1323985 7.6695188 6.5078125 9.5917969 C 6.4859449 9.6590984 6.4758895 9.727333 6.4570312 9.7949219 C 6.5882297 9.7433638 6.7233136 9.693116 6.8574219 9.6425781 C 7.4222089 7.9765493 8.8342988 6.7657155 10.544922 6.5449219 L 11.341797 6.4414062 L 11.376953 7.0273438 L 12.210938 6.2519531 C 11.986603 6.1328105 11.757136 6.0204271 11.552734 5.9492188 C 11.512727 5.9352811 11.412993 5.9133831 11.355469 5.8964844 z M 9.9453125 8.2539062 C 9.5936904 8.4071204 9.2817451 8.6366584 9.0117188 8.9160156 C 9.3246375 8.8219815 9.6360405 8.7260762 9.9589844 8.6386719 C 9.9616195 8.6379587 9.9641621 8.6374312 9.9667969 8.6367188 L 9.9453125 8.2539062 z M 16.822266 8.3535156 C 16.809877 8.3537621 16.795627 8.3551945 16.783203 8.3554688 C 17.387917 9.7836497 17.476198 11.430422 16.96875 12.992188 C 16.911704 13.167757 16.836381 13.332363 16.765625 13.5 C 19.535602 12.197534 21.254222 10.731106 20.96875 9.6542969 C 20.738921 8.7824483 19.221652 8.3057902 16.822266 8.3535156 z M 15.107422 8.46875 C 14.974012 8.4825847 14.833 8.5051861 14.697266 8.5214844 C 15.430737 9.6541272 15.652599 11.074601 15.214844 12.421875 C 14.89176 13.416224 14.252353 14.241279 13.435547 14.804688 C 13.757405 14.700065 14.063257 14.591095 14.371094 14.480469 C 14.889372 13.935671 15.300421 13.273827 15.542969 12.527344 C 16.003321 11.110526 15.7995 9.6577943 15.107422 8.46875 z M 13.033203 8.7734375 C 12.468221 8.8753147 11.897002 8.9938876 11.316406 9.1308594 L 10.064453 10.294922 L 10.015625 9.4589844 C 9.4431015 9.617656 8.8851666 9.7861559 8.3476562 9.9648438 C 8.3209257 10.032342 8.2845653 10.091795 8.2617188 10.162109 C 7.8680586 11.373671 8.242941 12.701665 9.1582031 13.46875 L 9.7109375 13.931641 L 11.955078 11.785156 L 12.074219 13.857422 C 12.861215 13.517001 13.502755 12.840149 13.789062 11.958984 C 14.168342 10.791684 13.857879 9.5665373 13.033203 8.7734375 z M 6.6503906 10.585938 C 6.5292326 10.634256 6.4053698 10.681398 6.2871094 10.730469 C 6.1787991 12.06486 6.6082536 13.377294 7.4472656 14.367188 L 7.7011719 14.052734 C 6.8945804 13.093849 6.5084252 11.840991 6.6503906 10.585938 z M 4.7714844 11.414062 C 2.2645953 12.661347 0.76126934 14.030451 1.03125 15.048828 C 1.331702 16.188447 3.7902735 16.569344 7.109375 16.199219 L 6.9902344 16.099609 C 5.594392 14.933283 4.8289659 13.210089 4.7714844 11.414062 z M 10.644531 15.115234 L 10.001953 15.730469 C 10.220906 15.683516 10.447491 15.622695 10.669922 15.570312 L 10.644531 15.115234 z "
     id="path4138" />
  <g
     id="g4263"
     transform="matrix(0.42307692,0,0,0.42307692,6.3606939,7.5192308)">
    <g
       style="fill:#ececec;fill-opacity:1"
       id="g3628"
       transform="matrix(0.34782609,0,0,0.34782609,2.6435901,2.6456559)" />
    <g
       transform="matrix(0.49988464,0,0,0.49988464,-37.411065,7.9950011)"
       clip-path="url(#clipPath-408241621)"
       id="g3650">
      <!-- color: #004794 -->
      <g
         id="g3652" />
    </g>
  </g>
  <g
     id="g4174"
     transform="matrix(0.309017,-0.95105651,0.95105651,0.309017,-2.8485609,18.098181)">
    <g
       style="fill:#ececec;fill-opacity:1"
       id="g3628-8"
       transform="matrix(0.34782609,0,0,0.34782609,2.6435901,2.6456559)">
      <path
         inkscape:connector-curvature="0"
         id="path3630"
         transform="matrix(2.875,0,0,2.875,97.067647,-33.481261)"
         d="m -25.40625,14.5 c 2.303968,0 4.367461,1.302964 5.28125,3.3125 l 1.21875,-0.46875 -1,3.46875 -3.3125,-1.84375 1.28125,-0.5 c -0.620857,-1.310198 -1.9541,-2.125 -3.46875,-2.125 -1.572637,0 -2.996131,0.939574 -3.5625,2.34375 L -30.75,18 c 0.844805,-2.103515 2.984794,-3.5 5.34375,-3.5 z m -5.5,4.71875 3.3125,1.78125 -1.28125,0.5 c 0.613358,1.304699 1.964097,2.15625 3.46875,2.15625 1.575636,0 2.978635,-0.910324 3.5625,-2.3125 l 1.78125,0.6875 c -0.876798,2.103015 -2.979296,3.46875 -5.34375,3.46875 -2.292471,0 -4.386956,-1.339213 -5.28125,-3.34375 l -1.21875,0.4375 z"
         style="fill:#ececec;fill-opacity:1"
         sodipodi:nodetypes="scccccsccscccsccsccc" />
    </g>
    <g
       transform="matrix(0.49988464,0,0,0.49988464,-37.411065,7.9950011)"
       clip-path="url(#clipPath-408241621-2)"
       id="g3650-3">
      <!-- color: #004794 -->
      <g
         id="g3652-1" />
    </g>
  </g>
  <g
     id="g4174-4"
     style="stroke:#000000;stroke-width:1.5;stroke-miterlimit:4;stroke-dasharray:none;stroke-opacity:1"
     transform="matrix(0.309017,-0.95105651,0.95105651,0.309017,5.3423705,12.368353)">
    <g
       style="fill:#ececec;fill-opacity:1;stroke:#000000;stroke-width:4.3125;stroke-miterlimit:4;stroke-dasharray:none;stroke-opacity:1"
       id="g3628-8-4"
       transform="matrix(0.34782609,0,0,0.34782609,2.6435901,2.6456559)" />
    <g
       transform="matrix(0.49988464,0,0,0.49988464,-37.411065,7.9950011)"
       clip-path="url(#clipPath-408241621-2-6)"
       id="g3650-3-9"
       style="stroke:#000000;stroke-width:3.00069237;stroke-miterlimit:4;stroke-dasharray:none;stroke-opacity:1">
      <!-- color: #004794 -->
      <g
         id="g3652-1-7"
         style="stroke:#000000;stroke-width:3.00069237;stroke-miterlimit:4;stroke-dasharray:none;stroke-opacity:1" />
    </g>
  </g>
</svg>

<svg xmlns="http://www.w3.org/2000/svg" viewBox="0 0 22 22">
 <path d="m 11.355 5.896 l 0.008 0.131 l -0.703 0.08 c -1.892 0.214 -3.528 1.562 -4.152 3.484 c -0.022 0.067 -0.032 0.136 -0.051 0.203 c 0.131 -0.052 0.266 -0.102 0.4 -0.152 c 0.565 -1.666 1.977 -2.877 3.688 -3.098 l 0.797 -0.104 l 0.035 0.586 l 0.834 -0.775 c -0.224 -0.119 -0.454 -0.232 -0.658 -0.303 c -0.04 -0.014 -0.14 -0.036 -0.197 -0.053 z m -1.41 2.357 c -0.352 0.153 -0.664 0.383 -0.934 0.662 c 0.313 -0.094 0.624 -0.19 0.947 -0.277 c 0.003 -0.001 0.005 -0.001 0.008 -0.002 l -0.021 -0.383 z m 6.877 0.1 c -0.012 0 -0.027 0.002 -0.039 0.002 c 0.605 1.428 0.693 3.075 0.186 4.637 c -0.057 0.176 -0.132 0.34 -0.203 0.508 c 2.77 -1.302 4.489 -2.769 4.203 -3.846 c -0.23 -0.872 -1.747 -1.349 -4.146 -1.301 z m -1.715 0.115 c -0.133 0.014 -0.274 0.036 -0.41 0.053 c 0.733 1.133 0.955 2.553 0.518 3.9 c -0.323 0.994 -0.962 1.819 -1.779 2.383 c 0.322 -0.105 0.628 -0.214 0.936 -0.324 c 0.518 -0.545 0.929 -1.207 1.172 -1.953 c 0.46 -1.417 0.257 -2.87 -0.436 -4.059 z m -2.074 0.305 c -0.565 0.102 -1.136 0.22 -1.717 0.357 l -1.252 1.164 l -0.049 -0.836 c -0.573 0.159 -1.13 0.327 -1.668 0.506 c -0.027 0.067 -0.063 0.127 -0.086 0.197 c -0.394 1.212 -0.019 2.54 0.896 3.307 l 0.553 0.463 l 2.244 -2.146 l 0.119 2.072 c 0.787 -0.34 1.429 -1.017 1.715 -1.898 c 0.379 -1.167 0.069 -2.392 -0.756 -3.186 z m -6.383 1.813 c -0.121 0.048 -0.245 0.095 -0.363 0.145 c -0.108 1.334 0.321 2.647 1.16 3.637 l 0.254 -0.314 c -0.807 -0.959 -1.193 -2.212 -1.051 -3.467 z m -1.879 0.828 c -2.507 1.247 -4.01 2.616 -3.74 3.635 c 0.3 1.14 2.759 1.521 6.078 1.15 l -0.119 -0.1 c -1.396 -1.166 -2.161 -2.89 -2.219 -4.686 z m 5.873 3.701 l -0.643 0.615 c 0.219 -0.047 0.446 -0.108 0.668 -0.16 l -0.025 -0.455 z" style="fill:#ececec;opacity:1;fill-opacity:0.941;stroke:none;fill-rule:nonzero"/>
 <g transform="matrix(0.42307692,0,0,0.42307692,6.3606939,7.5192308)">
  <g transform="matrix(0.49988464,0,0,0.49988464,-37.411065,7.9950011)">
   <!-- color: #004794 -->
  </g>
 </g>
 <g transform="matrix(0.309017,-0.95105651,0.95105651,0.309017,-2.8485609,18.098181)">
  <g transform="matrix(0.34782609,0,0,0.34782609,2.6435901,2.6456559)" style="fill:#ececec;fill-opacity:1">
   <path transform="matrix(2.875,0,0,2.875,97.067647,-33.481261)" d="m -25.406 14.5 c 2.304 0 4.367 1.303 5.281 3.313 l 1.219 -0.469 -1 3.469 -3.313 -1.844 1.281 -0.5 c -0.621 -1.31 -1.954 -2.125 -3.469 -2.125 -1.573 0 -2.996 0.94 -3.563 2.344 l -1.781 -0.688 c 0.845 -2.104 2.985 -3.5 5.344 -3.5 z m -5.5 4.719 3.313 1.781 -1.281 0.5 c 0.613 1.305 1.964 2.156 3.469 2.156 1.576 0 2.979 -0.91 3.563 -2.313 l 1.781 0.688 c -0.877 2.103 -2.979 3.469 -5.344 3.469 -2.292 0 -4.387 -1.339 -5.281 -3.344 l -1.219 0.438 z"/>
  </g>
  <g transform="matrix(0.49988464,0,0,0.49988464,-37.411065,7.9950011)">
   <!-- color: #004794 -->
  </g>
 </g>
 <g transform="matrix(0.309017,-0.95105651,0.95105651,0.309017,5.3423705,12.368353)" style="stroke-dasharray:none;stroke-opacity:1;stroke-miterlimit:4;stroke:#000;stroke-width:1.5">
  <g transform="matrix(0.49988464,0,0,0.49988464,-37.411065,7.9950011)" style="stroke-width:3">
   <!-- color: #004794 -->
  </g>
 </g>
</svg>
